X: 25041
T: Maids In The Meadow, The
R: reel
M: 4/4
K: Dmixolydian
|:d2ed cAGc|Add^c dfag|f2e^c d=cAG|E2cE EDD2:|
|:fed^c d2cd|eaag eaae|fed^c d2cd|eaag edd2:|

